dist/img/svg/ic_next.svg

<svg width="20" height="20" viewBox="0 0 20 20" fill="none" xmlns="http://www.w3.org/2000/svg">
<path d="M14.1796 10.4521C14.1693 10.3002 14.1039 10.156 13.9938 10.0421L7.30266 3.22786C7.17042 3.09239 6.98463 3.01075 6.78665 3.00101C6.58855 2.99114 6.39435 3.05413 6.24692 3.17581C6.09951 3.29737 6.01108 3.4679 6.00097 3.64946C5.99086 3.83104 6.06009 4.00879 6.19324 4.14356L12.437 10.5L6.19324 16.8564C6.06009 16.9912 5.99086 17.169 6.00097 17.3505C6.01108 17.5321 6.09951 17.7026 6.24692 17.8242C6.39433 17.9459 6.58854 18.0089 6.78665 17.999C6.98463 17.9892 7.1704 17.9076 7.30266 17.7721L13.9938 10.9579C14.1281 10.8194 14.1953 10.6368 14.1796 10.4521V10.4521Z" fill="#202125"/>
</svg>

<svg width="20" height="20" viewBox="0 0 20 20" fill="none" xmlns="http://www.w3.org/2000/svg"><path d="M14.18 10.452a.654.654 0 00-.186-.41L7.303 3.228A.775.775 0 006.787 3a.789.789 0 00-.54.175.663.663 0 00-.246.473.65.65 0 00.192.495l6.244 6.356-6.244 6.356a.651.651 0 00-.192.494c.01.182.099.353.246.474a.788.788 0 00.54.175.775.775 0 00.516-.227l6.69-6.814a.647.647 0 00.187-.506z" fill="#202125"/></svg>
